X: 9600
T: Dawle's
R: polka
M: 2/4
K: Gmajor
|:GA B/c/d|ed BG|A2 Af|ed Bd|
GA B/c/d|ed BG|AB cF|AG G2:|
|:ga/g/ fg/f/|ed Bd|e/f/e/d/ ef|ed B/c/d|
ga/g/ fg/f/|ed BG|AB cF|AG G2:|

